src/img/footer-social/telegram.svg

<svg width="32" height="32" viewBox="0 0 32 32" fill="none" xmlns="http://www.w3.org/2000/svg">
<path d="M29 6.10352e-05H3C1.34315 6.10352e-05 0 1.34321 0 3.00006V29.0001C0 30.6569 1.34315 32.0001 3 32.0001H29C30.6569 32.0001 32 30.6569 32 29.0001V3.00006C32 1.34321 30.6569 6.10352e-05 29 6.10352e-05Z" fill="#61A8DE"/>
<path d="M25.1966 7.06389L3.7978 15.4028C3.10469 15.6729 3.14668 16.6675 3.86015 16.8782L9.29782 18.4839L11.3272 24.9232C11.5391 25.5958 12.3915 25.7997 12.8849 25.2959L15.6963 22.4253L21.2126 26.4744C21.8876 26.9699 22.849 26.6017 23.0204 25.7821L26.6739 8.31494C26.8528 7.45935 26.011 6.74651 25.1966 7.06389ZM22.5138 10.9403L12.5741 19.7299C12.4751 19.8175 12.412 19.9388 12.3973 20.0702L12.0146 23.4721C12.0021 23.583 11.8468 23.5977 11.8137 23.4911L10.2392 18.4177C10.1671 18.1855 10.2611 17.9338 10.4678 17.8057L22.2054 10.5259C22.4753 10.3583 22.7517 10.7299 22.5138 10.9403Z" fill="white"/>
</svg>

<svg width="32" height="32" fill="none" xmlns="http://www.w3.org/2000/svg"><path d="M29 0H3a3 3 0 00-3 3v26a3 3 0 003 3h26a3 3 0 003-3V3a3 3 0 00-3-3z" fill="#61A8DE"/><path d="M25.197 7.064l-21.4 8.339c-.692.27-.65 1.264.063 1.475l5.438 1.606 2.03 6.44a.934.934 0 001.557.372l2.811-2.87 5.517 4.048a1.151 1.151 0 001.807-.692l3.654-17.467a1.1 1.1 0 00-1.477-1.251zm-2.683 3.876l-9.94 8.79a.534.534 0 00-.177.34l-.382 3.402c-.013.111-.168.126-.201.02l-1.575-5.074a.534.534 0 01.229-.612l11.737-7.28c.27-.168.547.204.309.414z" fill="#fff"/></svg>
